dist/imgs/user-dark-icon.svg

<svg width="13" height="12" viewBox="0 0 13 12" fill="none" xmlns="http://www.w3.org/2000/svg">
<path d="M8.2959 1.51341C7.83981 1.02099 7.20278 0.749817 6.49966 0.749817C5.79278 0.749817 5.15364 1.01935 4.69966 1.50872C4.24075 2.00349 4.01716 2.67591 4.06966 3.402C4.17372 4.8345 5.2638 5.99981 6.49966 5.99981C7.73551 5.99981 8.82372 4.83474 8.92942 3.40247C8.98262 2.68294 8.75762 2.01193 8.2959 1.51341Z" fill="#718096"/>
<path d="M10.6248 11.2493H2.37477C2.26678 11.2507 2.15984 11.228 2.06173 11.1829C1.96361 11.1377 1.87679 11.0713 1.80758 10.9884C1.65524 10.8063 1.59383 10.5576 1.6393 10.3061C1.83711 9.2088 2.45445 8.287 3.42477 7.63989C4.2868 7.06544 5.37875 6.74927 6.49976 6.74927C7.62078 6.74927 8.71273 7.06567 9.57476 7.63989C10.5451 8.28677 11.1624 9.20856 11.3602 10.3059C11.4057 10.5574 11.3443 10.8061 11.1919 10.9882C11.1228 11.0711 11.0359 11.1376 10.9378 11.1828C10.8397 11.2279 10.7328 11.2506 10.6248 11.2493Z" fill="#718096"/>
</svg>

<svg width="13" height="12" fill="none" xmlns="http://www.w3.org/2000/svg"><path d="M8.296 1.513A2.412 2.412 0 006.5.75c-.707 0-1.346.27-1.8.759-.46.494-.683 1.167-.63 1.893C4.174 4.835 5.264 6 6.5 6c1.236 0 2.324-1.165 2.43-2.598.053-.72-.172-1.39-.634-1.889zm2.329 9.737h-8.25a.727.727 0 01-.567-.262.828.828 0 01-.169-.682c.198-1.097.815-2.019 1.786-2.666.862-.575 1.954-.89 3.075-.89 1.12 0 2.213.316 3.075.89.97.647 1.587 1.569 1.785 2.666a.827.827 0 01-.168.682.727.727 0 01-.567.261z" fill="#718096"/></svg>
